X:1
T:Abendlied
T:Eduard Grell
T:Julius Sturm
T:Abendlied
T:CPDL - Creative Commons Attribution Non Commercial 3.0
C:Eduard Grell
Z:Julius Sturm
Z:CPDL - Creative Commons Attribution Non Commercial 3.0
%%score [ ( 1 2 ) 3 4 ]
L:1/8
Q:1/4=60
M:4/4
K:Ab
V:1 treble nm="S\nA"
V:2 treble 
V:3 treble-8 nm="T"
V:4 bass nm="B"
V:1
!p!"^Langsam" c2 | F3!<(! G A2 A2!<)! |!>(! A4!>)! !breath!E2 B2 | cB A2 A3 B |!>(! (A2 G4)!>)! | %5
w: |||||
w: |||||
w: |||||
!mf! B2 |!<(! c2 e2 A2!<)! A2 |!>(! (A2 B2)!>)! !breath!G2!p! E2 | E2 GF E3!>(! E!>)! | %9
w: ||Hän- * de, das|Tag- werk _ ist voll-|
w: ||schwin- * ge dich|auf in * Got- tes|
w: ||Hü- * geln der|Him- mel _ auf- ge-|
 !fermata!E8 |] %10
w: bracht.|
w: Schoß.|
w: tan.|
V:2
 E2 | D2 D2 E2 DC | F4 E2 E2 | E2 E2 E2 =D2 | E6 | G2 | _G2 G2 G2 FE | F4 B,2 ED | C2 D2 B,2 B,2 | %9
w: 1. Der|Tag neigt sich zu *|En- de, es|kommt die stil- le|Nacht;|nun|ruht, ihr mü- den *|||
w: 2. Du|a- ber, See- le, *|rin- ge dich|von der Er- de|los,|und|wer- de leicht und *|||
w: 3. Hin-|auf mit Glau- bens- *|flü- geln, die|Lie- be fliegt vor-|an,|wo|ü- ber dun- keln *|||
 C8 |] %10
w: |
w: |
w: |
V:3
!p! A2 | A2!<(! B2 A2 A2!<)! |!>(! (A2 d2)!>)! !breath!c2 B2 | ed c2 c2 BA |!>(! (c2 B4)!>)! | %5
w: 1. Der|Tag neigt sich zu|En- * de, es|kommt * die stil- le *|Nacht; *|
w: 2. Du|a- ber, See- le,|rin- * ge dich|von * der Er- de *|los, _|
w: 3. Hin-|auf mit Glau- bens-|flü- * geln, die|Lie- * be fliegt vor- *|an, _|
!mf! e2 |!<(! e2 cd e2!<)! c2 |!>(! d4!>)! !breath!d2!p! cB | A2 A2 A2!>(! G2!>)! | !fermata!A8 |] %10
w: nun|ruht, ihr * mü- den|Hän- de, das *|Tag- werk ist voll-|bracht.|
w: und|wer- de * leicht und|schwin- ge dich *|auf in Got- tes|Schoß.|
w: wo|ü- ber * dun- keln|Hü- geln der *|Him- mel auf- ge-|tan.|
V:4
!p! A,,2 | D,2!<(! B,,2 C,2 F,2!<)! |!>(! (D,2 F,2)!>)! !breath!A,2 G,2 | A,2 A,2 F,2 F,2 | %4
!>(! E,6!>)! |!mf! E,2 |!<(! A,2 A,B, C2!<)! A,2 |!>(! D,4!>)! !breath!E,2!p! E,2 | %8
 A,,2 D,2 E,2!>(! E,2!>)! | !fermata!A,,8 |] %10

